X:11
T:F\'ainne Geal an Lae
R:air
Z:id:hn-air-11
M:4/4
L:1/8
K:G
GA | B2B2 B2AB | d3e fedB | A2AB G3A | B6 GA |
B2B2 B2AB | d3e fedB | A2AB A3G | G6 ||
BA | Bdef g2fg | eged BABd | e2e2 f2d2 | e3f gfed |
B2B2 B2AB | d3e fedB | AGAB A3G | G6 ||
<end>
<start>
